static/img/kroki/7150348bfd35701bd1d0c1200a7b0360.svg

<?xml version="1.0" encoding="us-ascii" standalone="no"?><svg xmlns="http://www.w3.org/2000/svg" xmlns:xlink="http://www.w3.org/1999/xlink" contentStyleType="text/css" height="352px" preserveAspectRatio="none" style="width:487px;height:352px;" version="1.1" viewBox="0 0 487 352" width="487px" zoomAndPan="magnify"><defs/><g><!--class aws_iam_role--><g id="elem_aws_iam_role"><rect codeLine="22" fill="#3D176E" height="39.7891" id="aws_iam_role" rx="2.5" ry="2.5" style="stroke:#000D19;stroke-width:0.5;" width="157" x="190.5" y="7"/><ellipse cx="205.5" cy="26.8945" fill="#ADD1B2" rx="11" ry="11" style="stroke:#181818;stroke-width:1.0;"/><path d="M208.4688,32.5352 Q207.8906,32.832 207.25,32.9727 Q206.6094,33.1289 205.9063,33.1289 Q203.4063,33.1289 202.0781,31.4883 Q200.7656,29.832 200.7656,26.707 Q200.7656,23.582 202.0781,21.9258 Q203.4063,20.2695 205.9063,20.2695 Q206.6094,20.2695 207.25,20.4258 Q207.9063,20.582 208.4688,20.8789 L208.4688,23.5977 Q207.8438,23.0195 207.25,22.7539 Q206.6563,22.4727 206.0313,22.4727 Q204.6875,22.4727 204,23.5508 Q203.3125,24.6133 203.3125,26.707 Q203.3125,28.8008 204,29.8789 Q204.6875,30.9414 206.0313,30.9414 Q206.6563,30.9414 207.25,30.6758 Q207.8438,30.3945 208.4688,29.8164 L208.4688,32.5352 Z " fill="#000000"/><text fill="#D9B8FF" font-family="Helvetica" font-size="17" lengthAdjust="spacing" textLength="115" x="224.5" y="32.7798">aws_iam_role</text></g><!--class aws_kms_key--><g id="elem_aws_kms_key"><rect codeLine="24" fill="#3D176E" height="39.7891" id="aws_kms_key" rx="2.5" ry="2.5" style="stroke:#000D19;stroke-width:0.5;" width="158" x="104" y="306.37"/><ellipse cx="119" cy="326.2645" fill="#ADD1B2" rx="11" ry="11" style="stroke:#181818;stroke-width:1.0;"/><path d="M121.9688,331.9052 Q121.3906,332.202 120.75,332.3427 Q120.1094,332.4989 119.4063,332.4989 Q116.9063,332.4989 115.5781,330.8583 Q114.2656,329.202 114.2656,326.077 Q114.2656,322.952 115.5781,321.2958 Q116.9063,319.6395 119.4063,319.6395 Q120.1094,319.6395 120.75,319.7958 Q121.4063,319.952 121.9688,320.2489 L121.9688,322.9677 Q121.3438,322.3895 120.75,322.1239 Q120.1563,321.8427 119.5313,321.8427 Q118.1875,321.8427 117.5,322.9208 Q116.8125,323.9833 116.8125,326.077 Q116.8125,328.1708 117.5,329.2489 Q118.1875,330.3114 119.5313,330.3114 Q120.1563,330.3114 120.75,330.0458 Q121.3438,329.7645 121.9688,329.1864 L121.9688,331.9052 Z " fill="#000000"/><text fill="#D9B8FF" font-family="Helvetica" font-size="17" lengthAdjust="spacing" textLength="116" x="138" y="332.1498">aws_kms_key</text></g><!--class aws_s3_bucket--><g id="elem_aws_s3_bucket"><rect codeLine="26" fill="#3D176E" height="39.7891" id="aws_s3_bucket" rx="2.5" ry="2.5" style="stroke:#000D19;stroke-width:0.5;" width="168" x="312" y="306.37"/><ellipse cx="327" cy="326.2645" fill="#ADD1B2" rx="11" ry="11" style="stroke:#181818;stroke-width:1.0;"/><path d="M329.9688,331.9052 Q329.3906,332.202 328.75,332.3427 Q328.1094,332.4989 327.4063,332.4989 Q324.9063,332.4989 323.5781,330.8583 Q322.2656,329.202 322.2656,326.077 Q322.2656,322.952 323.5781,321.2958 Q324.9063,319.6395 327.4063,319.6395 Q328.1094,319.6395 328.75,319.7958 Q329.4063,319.952 329.9688,320.2489 L329.9688,322.9677 Q329.3438,322.3895 328.75,322.1239 Q328.1563,321.8427 327.5313,321.8427 Q326.1875,321.8427 325.5,322.9208 Q324.8125,323.9833 324.8125,326.077 Q324.8125,328.1708 325.5,329.2489 Q326.1875,330.3114 327.5313,330.3114 Q328.1563,330.3114 328.75,330.0458 Q329.3438,329.7645 329.9688,329.1864 L329.9688,331.9052 Z " fill="#000000"/><text fill="#D9B8FF" font-family="Helvetica" font-size="17" lengthAdjust="spacing" textLength="126" x="346" y="332.1498">aws_s3_bucket</text></g><!--class aws_sagemaker_edge_packaging_job--><g id="elem_aws_sagemaker_edge_packaging_job"><rect codeLine="28" fill="#3D176E" height="39.7891" id="aws_sagemaker_edge_packaging_job" rx="2.5" ry="2.5" style="stroke:#000D19;stroke-width:0.5;" width="352" x="7" y="206.58"/><ellipse cx="22" cy="226.4745" fill="#ADD1B2" rx="11" ry="11" style="stroke:#181818;stroke-width:1.0;"/><path d="M24.9688,232.1152 Q24.3906,232.412 23.75,232.5527 Q23.1094,232.7089 22.4063,232.7089 Q19.9063,232.7089 18.5781,231.0683 Q17.2656,229.412 17.2656,226.287 Q17.2656,223.162 18.5781,221.5058 Q19.9063,219.8495 22.4063,219.8495 Q23.1094,219.8495 23.75,220.0058 Q24.4063,220.162 24.9688,220.4589 L24.9688,223.1777 Q24.3438,222.5995 23.75,222.3339 Q23.1563,222.0527 22.5313,222.0527 Q21.1875,222.0527 20.5,223.1308 Q19.8125,224.1933 19.8125,226.287 Q19.8125,228.3808 20.5,229.4589 Q21.1875,230.5214 22.5313,230.5214 Q23.1563,230.5214 23.75,230.2558 Q24.3438,229.9745 24.9688,229.3964 L24.9688,232.1152 Z " fill="#000000"/><text fill="#D9B8FF" font-family="Helvetica" font-size="17" lengthAdjust="spacing" textLength="310" x="41" y="232.3598">aws_sagemaker_edge_packaging_job</text></g><!--class aws_sagemaker_model--><g id="elem_aws_sagemaker_model"><rect codeLine="30" fill="#3D176E" height="39.7891" id="aws_sagemaker_model" rx="2.5" ry="2.5" style="stroke:#000D19;stroke-width:0.5;" width="237" x="236.5" y="106.79"/><ellipse cx="251.5" cy="126.6845" fill="#ADD1B2" rx="11" ry="11" style="stroke:#181818;stroke-width:1.0;"/><path d="M254.4688,132.3252 Q253.8906,132.622 253.25,132.7627 Q252.6094,132.9189 251.9063,132.9189 Q249.4063,132.9189 248.0781,131.2783 Q246.7656,129.622 246.7656,126.497 Q246.7656,123.372 248.0781,121.7158 Q249.4063,120.0595 251.9063,120.0595 Q252.6094,120.0595 253.25,120.2158 Q253.9063,120.372 254.4688,120.6689 L254.4688,123.3877 Q253.8438,122.8095 253.25,122.5439 Q252.6563,122.2627 252.0313,122.2627 Q250.6875,122.2627 250,123.3408 Q249.3125,124.4033 249.3125,126.497 Q249.3125,128.5908 250,129.6689 Q250.6875,130.7314 252.0313,130.7314 Q252.6563,130.7314 253.25,130.4658 Q253.8438,130.1845 254.4688,129.6064 L254.4688,132.3252 Z " fill="#000000"/><text fill="#D9B8FF" font-family="Helvetica" font-size="17" lengthAdjust="spacing" textLength="195" x="270.5" y="132.5698">aws_sagemaker_model</text></g><!--link aws_iam_role to aws_sagemaker_edge_packaging_job--><g id="link_aws_iam_role_aws_sagemaker_edge_packaging_job"><path codeLine="32" d="M254.7,47.16 C243.74,62.64 228.86,85.27 219,106.79 C204.72,137.96 194.27,176.27 188.42,200.78 " fill="none" id="aws_iam_role-to-aws_sagemaker_edge_packaging_job" style="stroke:#1A83AF;stroke-width:2.0;"/><polygon fill="#1A83AF" points="187.1,205.4,193.0499,197.5515,188.242,200.5322,185.2614,195.7243,187.1,205.4" style="stroke:#1A83AF;stroke-width:2.0;"/></g><!--link aws_iam_role to aws_sagemaker_model--><g id="link_aws_iam_role_aws_sagemaker_model"><path codeLine="33" d="M285.99,47.22 C299.89,63.02 319.6,85.43 334.39,102.26 " fill="none" id="aws_iam_role-to-aws_sagemaker_model" style="stroke:#1A83AF;stroke-width:2.0;"/><polygon fill="#1A83AF" points="338.04,105.41,335.1061,96.0083,334.7404,101.6533,329.0954,101.2876,338.04,105.41" style="stroke:#1A83AF;stroke-width:2.0;"/></g><!--link aws_sagemaker_edge_packaging_job to aws_kms_key--><g id="link_aws_sagemaker_edge_packaging_job_aws_kms_key"><path codeLine="34" d="M183,246.8 C183,262.07 183,283.5 183,300.11 " fill="none" id="aws_sagemaker_edge_packaging_job-to-aws_kms_key" style="stroke:#1A83AF;stroke-width:2.0;"/><polygon fill="#1A83AF" points="183,304.99,187,295.99,183,299.99,179,295.99,183,304.99" style="stroke:#1A83AF;stroke-width:2.0;"/></g><!--link aws_sagemaker_edge_packaging_job to aws_s3_bucket--><g id="link_aws_sagemaker_edge_packaging_job_aws_s3_bucket"><path codeLine="35" d="M225.08,246.8 C260.67,263.14 311.64,286.54 348.65,303.53 " fill="none" id="aws_sagemaker_edge_packaging_job-to-aws_s3_bucket" style="stroke:#1A83AF;stroke-width:2.0;"/><polygon fill="#1A83AF" points="353.01,305.99,346.4998,298.5996,348.466,303.9038,343.1619,305.87,353.01,305.99" style="stroke:#1A83AF;stroke-width:2.0;"/></g><!--link aws_sagemaker_model to aws_s3_bucket--><g id="link_aws_sagemaker_model_aws_s3_bucket"><path codeLine="36" d="M361.04,146.99 C365.85,162.87 372.5,186.02 377,206.58 C384.03,238.72 389.61,276.28 392.85,300.4 " fill="none" id="aws_sagemaker_model-to-aws_s3_bucket" style="stroke:#1A83AF;stroke-width:2.0;"/><polygon fill="#1A83AF" points="393.63,305.23,396.409,295.7813,392.9711,300.2736,388.4788,296.8357,393.63,305.23" style="stroke:#1A83AF;stroke-width:2.0;"/></g><!--link aws_sagemaker_model to aws_sagemaker_edge_packaging_job--><g id="link_aws_sagemaker_model_aws_sagemaker_edge_packaging_job"><path codeLine="37" d="M321.02,147.01 C292.51,163.21 251.8,186.36 221.97,203.32 " fill="none" id="aws_sagemaker_model-to-aws_sagemaker_edge_packaging_job" style="stroke:#1A83AF;stroke-width:2.0;"/><polygon fill="#1A83AF" points="217.91,206.2,227.7119,205.2389,222.2591,203.7331,223.7649,198.2804,217.91,206.2" style="stroke:#1A83AF;stroke-width:2.0;"/></g><!--SRC=[fP3DJiCm48JlUGfBFLTgYA3j1IbKgk1I8SeDeMWJhrEJs8xMBbL1l3lf3vMRj0s2WoypdtTdTY4vCbILMpE5AaMoWIsahe10iPZ8h2QcDCHwGe28XarpQhJh16QWaDrZ-OvEPj0adXSoApHQowuywmwo8YUpr7mttX5eMrkedKTDIh0sTevakdJeXU7ZT2H4asmExKKy7DvW2pF4aVR8O33WuRY9TAwwsFj0pEK7ij0_simuRCLihTXI5rDk22zag-YFVpRZ8t0kTSwkFUrfbuaqqf4-Nm0tgmqjeBJ-6kkGqBXrXPDMAnoFk1YUX1_EmTdcSWnMDf6W4Z8bii_WovCBLJzSDrGR9UaoAz0rTSXHGO6K8CyngUgjaDSzaZUJdaMLuLXktQCS_PTU68-YUFhQl-qS_kklssL1PzRMXFqT_l3pSAlWLEr_unUoV0C0]--></g></svg>

<svg xmlns="http://www.w3.org/2000/svg" width="487" height="352" preserveAspectRatio="none" style="width:487px;height:352px"><rect width="157" height="39.789" x="190.5" y="7" fill="#3D176E" rx="2.5" ry="2.5" style="stroke:#000d19;stroke-width:.5"/><circle cx="205.5" cy="26.895" r="11" fill="#ADD1B2" style="stroke:#181818;stroke-width:1"/><path d="M208.469 32.535q-.578.297-1.219.438-.64.156-1.344.156-2.5 0-3.828-1.64-1.312-1.657-1.312-4.782t1.312-4.781q1.328-1.656 3.828-1.656.703 0 1.344.156.656.156 1.219.453v2.719q-.625-.578-1.219-.844-.594-.281-1.219-.281-1.344 0-2.031 1.078-.688 1.062-.688 3.156 0 2.094.688 3.172.688 1.062 2.031 1.062.625 0 1.219-.265.594-.281 1.219-.86v2.72Z"/><text x="224.5" y="32.78" fill="#D9B8FF" font-family="Helvetica" font-size="17" textLength="115">aws_iam_role</text><rect width="158" height="39.789" x="104" y="306.37" fill="#3D176E" rx="2.5" ry="2.5" style="stroke:#000d19;stroke-width:.5"/><circle cx="119" cy="326.264" r="11" fill="#ADD1B2" style="stroke:#181818;stroke-width:1"/><path d="M121.969 331.905q-.578.297-1.219.438-.64.156-1.344.156-2.5 0-3.828-1.64-1.312-1.657-1.312-4.782t1.312-4.781q1.328-1.656 3.828-1.656.703 0 1.344.156.656.156 1.219.453v2.719q-.625-.579-1.219-.844-.594-.281-1.219-.281-1.344 0-2.031 1.078-.688 1.062-.688 3.156 0 2.094.688 3.172.688 1.062 2.031 1.062.625 0 1.219-.265.594-.281 1.219-.86v2.72Z"/><text x="138" y="332.15" fill="#D9B8FF" font-family="Helvetica" font-size="17" textLength="116">aws_kms_key</text><rect width="168" height="39.789" x="312" y="306.37" fill="#3D176E" rx="2.5" ry="2.5" style="stroke:#000d19;stroke-width:.5"/><circle cx="327" cy="326.264" r="11" fill="#ADD1B2" style="stroke:#181818;stroke-width:1"/><path d="M329.969 331.905q-.578.297-1.219.438-.64.156-1.344.156-2.5 0-3.828-1.64-1.312-1.657-1.312-4.782t1.312-4.781q1.328-1.656 3.828-1.656.703 0 1.344.156.656.156 1.219.453v2.719q-.625-.579-1.219-.844-.594-.281-1.219-.281-1.344 0-2.031 1.078-.688 1.062-.688 3.156 0 2.094.688 3.172.688 1.062 2.031 1.062.625 0 1.219-.265.594-.281 1.219-.86v2.72Z"/><text x="346" y="332.15" fill="#D9B8FF" font-family="Helvetica" font-size="17" textLength="126">aws_s3_bucket</text><rect width="352" height="39.789" x="7" y="206.58" fill="#3D176E" rx="2.5" ry="2.5" style="stroke:#000d19;stroke-width:.5"/><circle cx="22" cy="226.475" r="11" fill="#ADD1B2" style="stroke:#181818;stroke-width:1"/><path d="M24.969 232.115q-.578.297-1.219.438-.64.156-1.344.156-2.5 0-3.828-1.64-1.312-1.657-1.312-4.782t1.312-4.781q1.328-1.656 3.828-1.656.703 0 1.344.156.656.156 1.219.453v2.719q-.625-.578-1.219-.844-.594-.281-1.219-.281-1.343 0-2.031 1.078-.688 1.062-.688 3.156 0 2.094.688 3.172.688 1.062 2.031 1.062.625 0 1.219-.265.594-.281 1.219-.86v2.72Z"/><text x="41" y="232.36" fill="#D9B8FF" font-family="Helvetica" font-size="17" textLength="310">aws_sagemaker_edge_packaging_job</text><rect width="237" height="39.789" x="236.5" y="106.79" fill="#3D176E" rx="2.5" ry="2.5" style="stroke:#000d19;stroke-width:.5"/><circle cx="251.5" cy="126.684" r="11" fill="#ADD1B2" style="stroke:#181818;stroke-width:1"/><path d="M254.469 132.325q-.578.297-1.219.438-.64.156-1.344.156-2.5 0-3.828-1.64-1.312-1.657-1.312-4.782t1.312-4.781q1.328-1.656 3.828-1.656.703 0 1.344.156.656.156 1.219.453v2.719q-.625-.579-1.219-.844-.594-.281-1.219-.281-1.344 0-2.031 1.078-.688 1.062-.688 3.156 0 2.094.688 3.172.688 1.062 2.031 1.062.625 0 1.219-.265.594-.281 1.219-.86v2.72Z"/><text x="270.5" y="132.57" fill="#D9B8FF" font-family="Helvetica" font-size="17" textLength="195">aws_sagemaker_model</text><path fill="none" d="M254.7 47.16c-10.96 15.48-25.84 38.11-35.7 59.63-14.28 31.17-24.73 69.48-30.58 93.99" style="stroke:#1a83af;stroke-width:2"/><path fill="#1A83AF" d="m187.1 205.4 5.95-7.849-4.808 2.981-2.98-4.808 1.838 9.676z" style="stroke:#1a83af;stroke-width:2"/><path fill="none" d="M285.99 47.22c13.9 15.8 33.61 38.21 48.4 55.04" style="stroke:#1a83af;stroke-width:2"/><path fill="#1A83AF" d="m338.04 105.41-2.934-9.402-.366 5.645-5.645-.365 8.945 4.122z" style="stroke:#1a83af;stroke-width:2"/><path fill="none" d="M183 246.8v53.31" style="stroke:#1a83af;stroke-width:2"/><path fill="#1A83AF" d="m183 304.99 4-9-4 4-4-4 4 9z" style="stroke:#1a83af;stroke-width:2"/><path fill="none" d="m225.08 246.8 123.57 56.73" style="stroke:#1a83af;stroke-width:2"/><path fill="#1A83AF" d="m353.01 305.99-6.51-7.39 1.966 5.304-5.304 1.966 9.848.12z" style="stroke:#1a83af;stroke-width:2"/><path fill="none" d="M361.04 146.99c4.81 15.88 11.46 39.03 15.96 59.59 7.03 32.14 12.61 69.7 15.85 93.82" style="stroke:#1a83af;stroke-width:2"/><path fill="#1A83AF" d="m393.63 305.23 2.779-9.449-3.438 4.493-4.492-3.438 5.151 8.394z" style="stroke:#1a83af;stroke-width:2"/><path fill="none" d="M321.02 147.01c-28.51 16.2-69.22 39.35-99.05 56.31" style="stroke:#1a83af;stroke-width:2"/><path fill="#1A83AF" d="m217.91 206.2 9.802-.961-5.453-1.506 1.506-5.453-5.855 7.92z" style="stroke:#1a83af;stroke-width:2"/></svg>
